X:1
T:Belle of Claremont -- Hornpipe
R:hornpipe
B:Cole's 1000 Fiddle Tunes
M:2/4
L:1/16
K:C
vCCC2 vCEGC|cEGE cEGE|DDD2 vDFAF|dFAF dFED|
vCCC2 CEGC|cEGE cEGE|Dfef edcB|[c2E2][c2E2][c2E2]z2:|
|:vec.c2 vecgc|ecce .g2vdc|BG.G2 BGdG|BGGB dfed|
vec.c2 vecgc|ecce g2G2|Aagf edcB|[c2E2][c2E2][c2E2]z2:|
